build/img/icons/kononenko.svg

<svg width="327" height="45" viewBox="0 0 327 45" fill="none" xmlns="http://www.w3.org/2000/svg">
<path d="M0.375 43.5625V2.33125H5.60625V23.0875H5.71875L22.9313 2.33125H28.8375L15.9 18.025L30.8063 43.5625H25.0688L12.6938 22.1312L5.60625 30.5125V43.5625H0.375ZM47.7977 44.35C37.3915 44.35 30.1915 36.025 30.1915 22.8062C30.1915 9.5875 37.3915 1.6 47.7977 1.6C58.1477 1.6 65.3477 9.64375 65.3477 22.8062C65.3477 36.025 58.1477 44.35 47.7977 44.35ZM47.7977 39.7375C55.1665 39.7375 60.0602 33.1 60.0602 22.8062C60.0602 12.5125 55.1665 6.15625 47.7977 6.15625C40.3727 6.15625 35.5352 12.5125 35.5352 22.8062C35.5352 33.1 40.3727 39.7375 47.7977 39.7375ZM71.4895 43.5625V2.33125H76.8333L91.852 28.3187L96.2958 36.8687H96.577C96.2395 32.7062 95.8458 28.0375 95.8458 23.7625V2.33125H100.852V43.5625H95.452L80.4895 17.575L76.0458 9.08125H75.7645C76.0458 13.2437 76.4395 17.575 76.4395 21.9625V43.5625H71.4895ZM125.808 44.35C114.389 44.35 106.626 36.1375 106.626 22.4125C106.626 8.6875 114.389 0.924999 125.808 0.924999C137.226 0.924999 144.989 8.74375 144.989 22.4125C144.989 36.1375 137.226 44.35 125.808 44.35ZM125.808 35.6875C131.32 35.6875 134.751 30.5125 134.751 22.4125C134.751 14.3125 131.32 9.53125 125.808 9.53125C120.295 9.53125 116.92 14.3125 116.92 22.4125C116.92 30.5125 120.295 35.6875 125.808 35.6875ZM149.946 43.5625V1.65625H160.184L170.59 21.7375L174.696 31.0187H174.978C174.471 26.575 173.628 20.5562 173.628 15.55V1.65625H183.19V43.5625H172.953L162.603 23.3687L158.496 14.2H158.215C158.665 18.8687 159.509 24.6062 159.509 29.6687V43.5625H149.946ZM190.09 43.5625V1.65625H216.64V10.0375H200.159V17.8H214.165V26.2375H200.159V35.125H217.259V43.5625H190.09ZM223.496 43.5625V2.33125H228.84L243.859 28.3187L248.303 36.8687H248.584C248.246 32.7062 247.853 28.0375 247.853 23.7625V2.33125H252.859V43.5625H247.459L232.496 17.575L228.053 9.08125H227.771C228.053 13.2437 228.446 17.575 228.446 21.9625V43.5625H223.496ZM261.333 43.5625V2.33125H266.565V23.0875H266.677L283.89 2.33125H289.796L276.858 18.025L291.765 43.5625H286.027L273.652 22.1312L266.565 30.5125V43.5625H261.333ZM308.756 44.35C298.35 44.35 291.15 36.025 291.15 22.8062C291.15 9.5875 298.35 1.6 308.756 1.6C319.106 1.6 326.306 9.64375 326.306 22.8062C326.306 36.025 319.106 44.35 308.756 44.35ZM308.756 39.7375C316.125 39.7375 321.018 33.1 321.018 22.8062C321.018 12.5125 316.125 6.15625 308.756 6.15625C301.331 6.15625 296.493 12.5125 296.493 22.8062C296.493 33.1 301.331 39.7375 308.756 39.7375Z" fill="black"/>
</svg>

<svg width="327" height="45" fill="none" xmlns="http://www.w3.org/2000/svg"><path d="M.375 43.563V2.33h5.231v20.756h.113L22.93 2.331h5.906L15.9 18.025l14.906 25.538H25.07L12.694 22.13l-7.088 8.381v13.05H.375Zm47.423.787c-10.407 0-17.607-8.325-17.607-21.544 0-13.219 7.2-21.206 17.607-21.206 10.35 0 17.55 8.044 17.55 21.206 0 13.219-7.2 21.544-17.55 21.544Zm0-4.613c7.368 0 12.262-6.637 12.262-16.93 0-10.294-4.894-16.65-12.262-16.65-7.425 0-12.263 6.355-12.263 16.65 0 10.293 4.838 16.93 12.263 16.93Zm23.692 3.825V2.333h5.343L91.852 28.32l4.444 8.55h.281c-.337-4.163-.731-8.831-.731-13.107V2.332h5.006v41.23h-5.4L80.49 17.576l-4.444-8.494h-.282c.282 4.163.675 8.494.675 12.881v21.6h-4.95Zm54.318.788c-11.419 0-19.182-8.212-19.182-21.938 0-13.724 7.763-21.487 19.182-21.487 11.418 0 19.181 7.819 19.181 21.488 0 13.725-7.763 21.937-19.181 21.937Zm0-8.663c5.512 0 8.943-5.174 8.943-13.274 0-8.1-3.431-12.882-8.943-12.882-5.513 0-8.888 4.781-8.888 12.882 0 8.1 3.375 13.274 8.888 13.274Zm24.138 7.876V1.656h10.238l10.406 20.082 4.106 9.28h.282c-.507-4.443-1.35-10.462-1.35-15.468V1.656h9.562v41.907h-10.237l-10.35-20.194-4.107-9.169h-.281c.45 4.669 1.294 10.406 1.294 15.469v13.893h-9.563Zm40.144 0V1.656h26.55v8.381h-16.481V17.8h14.006v8.438h-14.006v8.887h17.1v8.438H190.09Zm33.406 0V2.33h5.344l15.019 25.988 4.444 8.55h.281c-.338-4.163-.731-8.831-.731-13.107V2.332h5.006v41.23h-5.4l-14.963-25.987-4.443-8.494h-.282c.282 4.163.675 8.494.675 12.881v21.6h-4.95Zm37.837 0V2.33h5.232v20.756h.112L283.89 2.331h5.906l-12.938 15.694 14.907 25.538h-5.738L273.652 22.13l-7.087 8.381v13.05h-5.232Zm47.423.787c-10.406 0-17.606-8.325-17.606-21.544 0-13.219 7.2-21.206 17.606-21.206 10.35 0 17.55 8.044 17.55 21.206 0 13.219-7.2 21.544-17.55 21.544Zm0-4.613c7.369 0 12.262-6.637 12.262-16.93 0-10.294-4.893-16.65-12.262-16.65-7.425 0-12.263 6.355-12.263 16.65 0 10.293 4.838 16.93 12.263 16.93Z" fill="#000"/></svg>
